X: 1
T: Herb's Jig
R: jig
S: http://www.scottishfiddlers.com/Sydney/Music/PDFs/National%20Set%2009.pdf
Z: 2008 John Chambers <jc:trillian.mit.edu>
M: 6/8
L: 1/8
K: A
E \
| "A"E2A ABc | "A"B2A A2f | "A"e2c     cBA | "E7"B3 z2E \
| "A"E2A ABc | "A"B2A A2f | "A"e2c "E7"BcB |  "A"A3 z2 :|
|: A \
| "A"A2A cde| "D"a3 a2f | "A"ecB     ABc | "E7"B3 z2A \
| "A"A2A cde| "D"a3 f3  | "A"efe "E7"dcB |  "A"A3 z2 :|
